dataset/nvim/icon.svg

<?xml version="1.0" encoding="UTF-8" standalone="no"?>
<svg
   height="128px"
   viewBox="0 0 128 128"
   width="128px"
   version="1.1"
   id="svg286"
   xmlns:xlink="http://www.w3.org/1999/xlink"
   xmlns="http://www.w3.org/2000/svg"
   xmlns:svg="http://www.w3.org/2000/svg">
  <defs
     id="defs290">
    <pattern
       xlink:href="#red-stripes"
       id="pattern1870"
       patternTransform="matrix(0.87499998,0,0,0.87499998,42.5625,25)" />
    <pattern
       id="red-stripes"
       width="341"
       height="90"
       patternUnits="userSpaceOnUse">
      <rect
         width="341"
         height="16"
         fill="#f00"
         id="rect2" />
      <rect
         y="16"
         width="341"
         height="16"
         fill="#d70000"
         id="rect4" />
      <rect
         y="32"
         width="341"
         height="16"
         fill="#af0000"
         id="rect6" />
      <rect
         y="48"
         width="341"
         height="16"
         fill="#870000"
         id="rect8" />
      <rect
         y="64"
         width="341"
         height="16"
         fill="#5f0000"
         id="rect10" />
    </pattern>
    <linearGradient
       x1="49.021477"
       y1="-0.079846866"
       x2="49.021477"
       y2="97.846107"
       id="a-3"
       gradientTransform="matrix(0.15223313,0,0,0.71463712,35.139391,25.057063)"
       gradientUnits="userSpaceOnUse">
      <stop
         stop-color="#16B0ED"
         stop-opacity=".8"
         offset="0%"
         id="stop2010" />
      <stop
         stop-color="#0F59B2"
         stop-opacity=".837"
         offset="100%"
         id="stop2012" />
    </linearGradient>
    <linearGradient
       x1="326.17334"
       y1="-0.069476359"
       x2="326.17334"
       y2="98.850868"
       id="b-6"
       gradientTransform="matrix(-0.15379709,0,0,0.70736996,135.40938,25.057063)"
       gradientUnits="userSpaceOnUse">
      <stop
         stop-color="#7DB643"
         offset="0%"
         id="stop2015" />
      <stop
         stop-color="#367533"
         offset="100%"
         id="stop2017" />
    </linearGradient>
    <linearGradient
       x1="103.88464"
       y1="-0.11535945"
       x2="103.88464"
       y2="178.55791"
       id="c"
       gradientTransform="matrix(0.2777346,0,0,0.39171008,35.139391,25.057063)"
       gradientUnits="userSpaceOnUse">
      <stop
         stop-color="#88C649"
         stop-opacity=".8"
         offset="0%"
         id="stop2020" />
      <stop
         stop-color="#439240"
         stop-opacity=".84"
         offset="100%"
         id="stop2022" />
    </linearGradient>
  </defs>
  <linearGradient
     id="a"
     gradientUnits="userSpaceOnUse"
     x1="11.999989"
     x2="115.999989"
     y1="64"
     y2="64">
    <stop
       offset="0"
       stop-color="#3d3846"
       id="stop252" />
    <stop
       offset="0.05"
       stop-color="#77767b"
       id="stop254" />
    <stop
       offset="0.1"
       stop-color="#5e5c64"
       id="stop256" />
    <stop
       offset="0.899999"
       stop-color="#504e56"
       id="stop258" />
    <stop
       offset="0.95"
       stop-color="#77767b"
       id="stop260" />
    <stop
       offset="1"
       stop-color="#3d3846"
       id="stop262" />
  </linearGradient>
  <linearGradient
     id="b"
     gradientUnits="userSpaceOnUse"
     x1="12"
     x2="112.041023"
     y1="60"
     y2="80.988281">
    <stop
       offset="0"
       stop-color="#77767b"
       id="stop265" />
    <stop
       offset="0.384443"
       stop-color="#9a9996"
       id="stop267" />
    <stop
       offset="0.720567"
       stop-color="#77767b"
       id="stop269" />
    <stop
       offset="1"
       stop-color="#68666f"
       id="stop271" />
  </linearGradient>
  <path
     d="m 20 22 h 88 c 4.417969 0 8 3.582031 8 8 v 78 c 0 4.417969 -3.582031 8 -8 8 h -88 c -4.417969 0 -8 -3.582031 -8 -8 v -78 c 0 -4.417969 3.582031 -8 8 -8 z m 0 0"
     fill="url(#a)"
     id="path274" />
  <path
     d="m 20 12 h 88 c 4.417969 0 8 3.582031 8 8 v 80 c 0 4.417969 -3.582031 8 -8 8 h -88 c -4.417969 0 -8 -3.582031 -8 -8 v -80 c 0 -4.417969 3.582031 -8 8 -8 z m 0 0"
     fill="url(#b)"
     id="path276" />
  <path
     d="m 20 14 h 88 c 3.3125 0 6 2.6875 6 6 v 80 c 0 3.3125 -2.6875 6 -6 6 h -88 c -3.3125 0 -6 -2.6875 -6 -6 v -80 c 0 -3.3125 2.6875 -6 6 -6 z m 0 0"
     fill="#241f31"
     id="path278" />
  <path
     d="M 35.148303,40.051058 50.05587,25.000001 V 94.981524 L 35.148303,80.104627 Z"
     fill="url(#a)"
     id="path2027"
     style="fill:url(#a-3);fill-rule:evenodd;stroke-width:0.329836" />
  <path
     d="M 92.749454,40.193219 77.638033,25.007918 77.944125,94.981199 92.851706,80.104302 92.749426,40.192554 Z"
     fill="url(#b)"
     id="path2029"
     style="fill:url(#b-6);fill-rule:evenodd;stroke-width:0.329836" />
  <path
     d="M 50.045982,25.011876 88.803628,84.154672 77.957975,95 39.179887,35.98814 Z"
     fill="url(#c)"
     id="path2031"
     style="fill:url(#c);fill-rule:evenodd;stroke-width:0.329836" />
  <path
     d="m 50.059181,52.443965 -0.0208,2.329622 -11.96644,-17.66698 1.108253,-1.128695 z"
     fill-opacity="0.13"
     fill="#000000"
     id="path2033"
     style="fill-rule:evenodd;stroke-width:0.329836" />
</svg>

<svg xmlns="http://www.w3.org/2000/svg" width="128" height="128" viewBox="0 0 128 128"><defs><linearGradient id="d" x1="49.021" x2="49.021" y1="-.08" y2="97.846" gradientTransform="matrix(.15223 0 0 .71464 35.14 25.057)" gradientUnits="userSpaceOnUse"><stop offset="0%" stop-color="#16b0ed" stop-opacity=".8"/><stop offset="100%" stop-color="#0f59b2" stop-opacity=".837"/></linearGradient><linearGradient id="e" x1="326.173" x2="326.173" y1="-.069" y2="98.851" gradientTransform="matrix(-.1538 0 0 .70737 135.41 25.057)" gradientUnits="userSpaceOnUse"><stop offset="0%" stop-color="#7db643"/><stop offset="100%" stop-color="#367533"/></linearGradient><linearGradient id="f" x1="103.885" x2="103.885" y1="-.115" y2="178.558" gradientTransform="matrix(.27773 0 0 .39171 35.14 25.057)" gradientUnits="userSpaceOnUse"><stop offset="0%" stop-color="#88c649" stop-opacity=".8"/><stop offset="100%" stop-color="#439240" stop-opacity=".84"/></linearGradient></defs><linearGradient id="b" x1="12" x2="116" y1="64" y2="64" gradientUnits="userSpaceOnUse"><stop offset="0" stop-color="#3d3846"/><stop offset=".05" stop-color="#77767b"/><stop offset=".1" stop-color="#5e5c64"/><stop offset=".9" stop-color="#504e56"/><stop offset=".95" stop-color="#77767b"/><stop offset="1" stop-color="#3d3846"/></linearGradient><linearGradient id="c" x1="12" x2="112.041" y1="60" y2="80.988" gradientUnits="userSpaceOnUse"><stop offset="0" stop-color="#77767b"/><stop offset=".384" stop-color="#9a9996"/><stop offset=".721" stop-color="#77767b"/><stop offset="1" stop-color="#68666f"/></linearGradient><path fill="url(#b)" d="M20 22h88a8 8 0 0 1 8 8v78a8 8 0 0 1-8 8H20a8 8 0 0 1-8-8V30a8 8 0 0 1 8-8m0 0"/><path fill="url(#c)" d="M20 12h88a8 8 0 0 1 8 8v80a8 8 0 0 1-8 8H20a8 8 0 0 1-8-8V20a8 8 0 0 1 8-8m0 0"/><path fill="#241f31" d="M20 14h88c3.313 0 6 2.688 6 6v80c0 3.313-2.687 6-6 6H20c-3.312 0-6-2.687-6-6V20c0-3.312 2.688-6 6-6m0 0"/><path fill="url(#b)" d="M35.148 40.051 50.056 25v69.982L35.148 80.105Z" style="fill:url(#d);fill-rule:evenodd;stroke-width:.329836"/><path fill="url(#c)" d="M92.75 40.193 77.637 25.008l.306 69.973 14.908-14.877z" style="fill:url(#e);fill-rule:evenodd;stroke-width:.329836"/><path fill="url(#f)" d="m50.046 25.012 38.758 59.143L77.958 95 39.18 35.988Z" style="fill:url(#f);fill-rule:evenodd;stroke-width:.329836"/><path fill-opacity=".13" d="m50.06 52.444-.022 2.33-11.966-17.667 1.108-1.13z" style="fill-rule:evenodd;stroke-width:.329836"/></svg>
